components/Common/Svg/svgs/titledReactNative.svg

<svg
  width="114"
  height="137"
  viewBox="0 0 114 137"
  fill="none"
  xmlns="http://www.w3.org/2000/svg"
>
  <path
    d="M8.046 127L4.734 121.816H2.952V127H1.314V114.31H5.49C6.93 114.31 8.01 114.658 8.73 115.354C9.45 116.038 9.81 116.95 9.81 118.09C9.81 119.122 9.522 119.956 8.946 120.592C8.37 121.216 7.536 121.606 6.444 121.762L9.9 127H8.046ZM2.952 120.628H5.346C7.206 120.628 8.136 119.812 8.136 118.18C8.136 116.548 7.206 115.732 5.346 115.732H2.952V120.628ZM20.8981 121.51C20.8981 121.858 20.8741 122.158 20.8261 122.41H12.9241C12.9601 123.538 13.2781 124.384 13.8781 124.948C14.4901 125.512 15.2341 125.794 16.1101 125.794C16.9021 125.794 17.5621 125.596 18.0901 125.2C18.6301 124.792 18.9601 124.252 19.0801 123.58H20.8261C20.7061 124.264 20.4361 124.876 20.0161 125.416C19.6081 125.956 19.0741 126.376 18.4141 126.676C17.7541 126.976 17.0101 127.126 16.1821 127.126C15.2341 127.126 14.3941 126.922 13.6621 126.514C12.9301 126.106 12.3541 125.524 11.9341 124.768C11.5261 124 11.3221 123.1 11.3221 122.068C11.3221 121.036 11.5261 120.136 11.9341 119.368C12.3541 118.6 12.9301 118.012 13.6621 117.604C14.3941 117.196 15.2341 116.992 16.1821 116.992C17.1421 116.992 17.9761 117.196 18.6841 117.604C19.4041 118.012 19.9501 118.558 20.3221 119.242C20.7061 119.926 20.8981 120.682 20.8981 121.51ZM19.2421 121.618C19.2781 120.886 19.1581 120.274 18.8821 119.782C18.6061 119.29 18.2281 118.924 17.7481 118.684C17.2681 118.444 16.7461 118.324 16.1821 118.324C15.2821 118.324 14.5261 118.606 13.9141 119.17C13.3021 119.722 12.9721 120.538 12.9241 121.618H19.2421ZM27.0906 116.992C28.0506 116.992 28.8606 117.232 29.5206 117.712C30.1926 118.192 30.6606 118.834 30.9246 119.638V117.118H32.5626V127H30.9246V124.48C30.6606 125.284 30.1926 125.926 29.5206 126.406C28.8606 126.886 28.0506 127.126 27.0906 127.126C26.2146 127.126 25.4346 126.922 24.7506 126.514C24.0666 126.106 23.5266 125.524 23.1306 124.768C22.7466 124 22.5546 123.1 22.5546 122.068C22.5546 121.036 22.7466 120.136 23.1306 119.368C23.5266 118.6 24.0666 118.012 24.7506 117.604C25.4346 117.196 26.2146 116.992 27.0906 116.992ZM27.5586 118.45C26.5506 118.45 25.7406 118.774 25.1286 119.422C24.5286 120.058 24.2286 120.94 24.2286 122.068C24.2286 123.196 24.5286 124.084 25.1286 124.732C25.7406 125.368 26.5506 125.686 27.5586 125.686C28.2066 125.686 28.7826 125.536 29.2866 125.236C29.8026 124.936 30.2046 124.516 30.4926 123.976C30.7806 123.424 30.9246 122.788 30.9246 122.068C30.9246 121.348 30.7806 120.712 30.4926 120.16C30.2046 119.608 29.8026 119.188 29.2866 118.9C28.7826 118.6 28.2066 118.45 27.5586 118.45ZM39.5435 116.992C40.8035 116.992 41.8475 117.328 42.6755 118C43.5035 118.672 44.0135 119.572 44.2055 120.7H42.4775C42.3575 119.992 42.0275 119.44 41.4875 119.044C40.9595 118.636 40.2995 118.432 39.5075 118.432C38.9315 118.432 38.4035 118.564 37.9235 118.828C37.4555 119.092 37.0775 119.5 36.7895 120.052C36.5015 120.592 36.3575 121.264 36.3575 122.068C36.3575 122.872 36.5015 123.55 36.7895 124.102C37.0775 124.642 37.4555 125.044 37.9235 125.308C38.4035 125.572 38.9315 125.704 39.5075 125.704C40.2995 125.704 40.9595 125.5 41.4875 125.092C42.0275 124.684 42.3575 124.126 42.4775 123.418H44.2055C44.0135 124.558 43.5035 125.464 42.6755 126.136C41.8475 126.796 40.8035 127.126 39.5435 127.126C38.5955 127.126 37.7555 126.922 37.0235 126.514C36.2915 126.106 35.7155 125.524 35.2955 124.768C34.8875 124 34.6835 123.1 34.6835 122.068C34.6835 121.036 34.8875 120.136 35.2955 119.368C35.7155 118.6 36.2915 118.012 37.0235 117.604C37.7555 117.196 38.5955 116.992 39.5435 116.992ZM51.0652 125.56V127H49.8412C48.8332 127 48.0772 126.76 47.5732 126.28C47.0812 125.8 46.8352 124.996 46.8352 123.868V118.54H45.3592V117.118H46.8352V114.652H48.4912V117.118H51.0472V118.54H48.4912V123.904C48.4912 124.54 48.6052 124.978 48.8332 125.218C49.0732 125.446 49.4812 125.56 50.0572 125.56H51.0652ZM67.3753 127H65.7373L59.1493 116.974V127H57.5113V114.31H59.1493L65.7373 124.354V114.31H67.3753V127ZM74.0593 116.992C75.0193 116.992 75.8293 117.232 76.4893 117.712C77.1613 118.192 77.6293 118.834 77.8933 119.638V117.118H79.5313V127H77.8933V124.48C77.6293 125.284 77.1613 125.926 76.4893 126.406C75.8293 126.886 75.0193 127.126 74.0593 127.126C73.1833 127.126 72.4033 126.922 71.7193 126.514C71.0353 126.106 70.4953 125.524 70.0993 124.768C69.7153 124 69.5233 123.1 69.5233 122.068C69.5233 121.036 69.7153 120.136 70.0993 119.368C70.4953 118.6 71.0353 118.012 71.7193 117.604C72.4033 117.196 73.1833 116.992 74.0593 116.992ZM74.5273 118.45C73.5193 118.45 72.7093 118.774 72.0973 119.422C71.4973 120.058 71.1973 120.94 71.1973 122.068C71.1973 123.196 71.4973 124.084 72.0973 124.732C72.7093 125.368 73.5193 125.686 74.5273 125.686C75.1753 125.686 75.7513 125.536 76.2553 125.236C76.7713 124.936 77.1733 124.516 77.4613 123.976C77.7493 123.424 77.8933 122.788 77.8933 122.068C77.8933 121.348 77.7493 120.712 77.4613 120.16C77.1733 119.608 76.7713 119.188 76.2553 118.9C75.7513 118.6 75.1753 118.45 74.5273 118.45ZM86.8542 125.56V127H85.6302C84.6222 127 83.8662 126.76 83.3622 126.28C82.8702 125.8 82.6242 124.996 82.6242 123.868V118.54H81.1482V117.118H82.6242V114.652H84.2802V117.118H86.8362V118.54H84.2802V123.904C84.2802 124.54 84.3942 124.978 84.6222 125.218C84.8622 125.446 85.2702 125.56 85.8462 125.56H86.8542ZM88.5651 114.22C88.5651 113.92 88.6671 113.68 88.8711 113.5C89.0751 113.308 89.3451 113.212 89.6811 113.212C90.0171 113.212 90.2871 113.308 90.4911 113.5C90.6951 113.68 90.7971 113.92 90.7971 114.22C90.7971 114.52 90.6951 114.766 90.4911 114.958C90.2871 115.138 90.0171 115.228 89.6811 115.228C89.3451 115.228 89.0751 115.138 88.8711 114.958C88.6671 114.766 88.5651 114.52 88.5651 114.22ZM90.4911 117.118V127H88.8531V117.118H90.4911ZM96.9585 125.254L100.019 117.118H101.783L97.9125 127H95.9685L92.0985 117.118H93.8625L96.9585 125.254ZM112.48 121.51C112.48 121.858 112.456 122.158 112.408 122.41H104.506C104.542 123.538 104.86 124.384 105.46 124.948C106.072 125.512 106.816 125.794 107.692 125.794C108.484 125.794 109.144 125.596 109.672 125.2C110.212 124.792 110.542 124.252 110.662 123.58H112.408C112.288 124.264 112.018 124.876 111.598 125.416C111.19 125.956 110.656 126.376 109.996 126.676C109.336 126.976 108.592 127.126 107.764 127.126C106.816 127.126 105.976 126.922 105.244 126.514C104.512 126.106 103.936 125.524 103.516 124.768C103.108 124 102.904 123.1 102.904 122.068C102.904 121.036 103.108 120.136 103.516 119.368C103.936 118.6 104.512 118.012 105.244 117.604C105.976 117.196 106.816 116.992 107.764 116.992C108.724 116.992 109.558 117.196 110.266 117.604C110.986 118.012 111.532 118.558 111.904 119.242C112.288 119.926 112.48 120.682 112.48 121.51ZM110.824 121.618C110.86 120.886 110.74 120.274 110.464 119.782C110.188 119.29 109.81 118.924 109.33 118.684C108.85 118.444 108.328 118.324 107.764 118.324C106.864 118.324 106.108 118.606 105.496 119.17C104.884 119.722 104.554 120.538 104.506 121.618H110.824Z"
    fill="#A0A0A0"
  ></path>
  <path
    d="M91.2119 47.3797C91.2119 42.861 85.5531 38.5786 76.8771 35.923C78.8792 27.0802 77.9894 20.0449 74.0685 17.7925C73.1648 17.2642 72.1081 17.0139 70.9541 17.0139V20.1144C71.5937 20.1144 72.1081 20.2396 72.5391 20.4759C74.43 21.5604 75.2504 25.6899 74.6108 31.0011C74.4578 32.308 74.2076 33.6845 73.9017 35.0888C71.1766 34.4214 68.2011 33.907 65.0728 33.5733C63.1958 31.0011 61.2493 28.6653 59.2888 26.6214C63.8215 22.4086 68.076 20.1005 70.968 20.1005V17C67.1445 17 62.1391 19.7251 57.0781 24.4524C52.0172 19.7529 47.0118 17.0556 43.1883 17.0556V20.1562C46.0664 20.1562 50.3348 22.4503 54.8674 26.6353C52.9209 28.6792 50.9744 31.0011 49.1252 33.5733C45.9829 33.907 43.0075 34.4214 40.2824 35.1027C39.9626 33.7123 39.7262 32.3637 39.5594 31.0706C38.9059 25.7594 39.7123 21.63 41.5893 20.5316C42.0065 20.2813 42.5487 20.1701 43.1883 20.1701V17.0695C42.0204 17.0695 40.9637 17.3198 40.046 17.8481C36.1391 20.1005 35.2631 27.1219 37.2792 35.9369C28.631 38.6065 23 42.8749 23 47.3797C23 51.8985 28.6588 56.1808 37.3348 58.8364C35.3326 67.6792 36.2225 74.7145 40.1433 76.9669C41.0471 77.4953 42.1038 77.7456 43.2717 77.7456C47.0952 77.7456 52.1006 75.0204 57.1616 70.2931C62.2225 74.9926 67.2279 77.6899 71.0514 77.6899C72.2193 77.6899 73.276 77.4397 74.1937 76.9113C78.1006 74.6589 78.9766 67.6375 76.9605 58.8225C85.5809 56.1669 91.2119 51.8846 91.2119 47.3797ZM73.1092 38.1059C72.5947 39.8995 71.9552 41.7487 71.2322 43.5979C70.6621 42.4856 70.0643 41.3733 69.4108 40.261C68.7712 39.1487 68.0899 38.0642 67.4086 37.0075C69.383 37.2995 71.2878 37.661 73.1092 38.1059ZM66.7413 52.9134C65.6568 54.7904 64.5445 56.5701 63.3904 58.2247C61.3188 58.4054 59.2193 58.5028 57.1059 58.5028C55.0065 58.5028 52.907 58.4054 50.8492 58.2386C49.6952 56.584 48.569 54.8183 47.4845 52.9551C46.4278 51.1338 45.4685 49.2845 44.5926 47.4214C45.4546 45.5583 46.4279 43.6952 47.4706 41.8738C48.5551 39.9968 49.6674 38.2171 50.8214 36.5626C52.8931 36.3819 54.9926 36.2845 57.1059 36.2845C59.2054 36.2845 61.3049 36.3819 63.3626 36.5487C64.5167 38.2032 65.6429 39.969 66.7274 41.8321C67.784 43.6535 68.7434 45.5027 69.6193 47.3658C68.7434 49.2289 67.784 51.092 66.7413 52.9134ZM71.2322 51.1059C71.983 52.969 72.6226 54.8322 73.1509 56.6396C71.3295 57.0846 69.4108 57.46 67.4225 57.7519C68.1038 56.6814 68.7851 55.583 69.4247 54.4568C70.0643 53.3444 70.6621 52.2182 71.2322 51.1059ZM57.1338 65.9413C55.8407 64.6065 54.5476 63.1188 53.2685 61.4921C54.5198 61.5477 55.799 61.5894 57.092 61.5894C58.399 61.5894 59.692 61.5616 60.9573 61.4921C59.7059 63.1188 58.4129 64.6065 57.1338 65.9413ZM46.7893 57.7519C44.815 57.46 42.9102 57.0985 41.0888 56.6535C41.6032 54.86 42.2428 53.0108 42.9658 51.1616C43.5359 52.2739 44.1337 53.3862 44.7872 54.4985C45.4407 55.6108 46.1081 56.6953 46.7893 57.7519ZM57.0642 28.8182C58.3573 30.153 59.6503 31.6407 60.9295 33.2674C59.6781 33.2118 58.399 33.1701 57.1059 33.1701C55.799 33.1701 54.5059 33.1979 53.2407 33.2674C54.492 31.6407 55.7851 30.153 57.0642 28.8182ZM46.7754 37.0075C46.0942 38.0781 45.4129 39.1765 44.7733 40.3027C44.1337 41.415 43.5359 42.5273 42.9658 43.6396C42.215 41.7765 41.5754 39.9134 41.0471 38.1059C42.8685 37.6749 44.7872 37.2995 46.7754 37.0075ZM34.1925 54.415C29.2706 52.3156 26.0866 49.5626 26.0866 47.3797C26.0866 45.1968 29.2706 42.43 34.1925 40.3444C35.3883 39.83 36.6952 39.3712 38.0439 38.9401C38.8364 41.6653 39.8792 44.5017 41.1722 47.4075C39.8931 50.2995 38.8642 53.122 38.0856 55.8332C36.7091 55.4022 35.4022 54.9295 34.1925 54.415ZM41.6728 74.2835C39.7818 73.199 38.9615 69.0696 39.6011 63.7584C39.754 62.4514 40.0043 61.0749 40.3102 59.6707C43.0353 60.338 46.0107 60.8525 49.1391 61.1862C51.0161 63.7584 52.9626 66.0942 54.9231 68.1381C50.3904 72.3509 46.1359 74.6589 43.2439 74.6589C42.6182 74.645 42.0899 74.5199 41.6728 74.2835ZM74.6525 63.6889C75.306 69.0001 74.4996 73.1295 72.6225 74.2279C72.2054 74.4782 71.6632 74.5894 71.0236 74.5894C68.1455 74.5894 63.8771 72.2953 59.3445 68.1103C61.291 66.0664 63.2375 63.7445 65.0867 61.1723C68.229 60.8386 71.2044 60.3241 73.9295 59.6429C74.2493 61.0471 74.4996 62.3958 74.6525 63.6889ZM80.0055 54.415C78.8097 54.9295 77.5028 55.3883 76.1541 55.8193C75.3616 53.0942 74.3188 50.2578 73.0258 47.3519C74.3049 44.4599 75.3338 41.6375 76.1124 38.9262C77.4889 39.3573 78.7958 39.83 80.0194 40.3444C84.9413 42.4439 88.1252 45.1968 88.1252 47.3797C88.1113 49.5626 84.9274 52.3295 80.0055 54.415Z"
    fill="#6A6A6A"
  ></path>
  <path
    d="M57.0923 53.7338C60.6015 53.7338 63.4463 50.889 63.4463 47.3798C63.4463 43.8705 60.6015 41.0258 57.0923 41.0258C53.5831 41.0258 50.7383 43.8705 50.7383 47.3798C50.7383 50.889 53.5831 53.7338 57.0923 53.7338Z"
    fill="#6A6A6A"
  ></path>
</svg>

<svg width="114" height="137" viewBox="0 0 114 137" fill="none" xmlns="http://www.w3.org/2000/svg"><path d="m8.046 127-3.312-5.184H2.952V127H1.314v-12.69H5.49c1.44 0 2.52.348 3.24 1.044.72.684 1.08 1.596 1.08 2.736 0 1.032-.288 1.866-.864 2.502-.576.624-1.41 1.014-2.502 1.17L9.9 127H8.046Zm-5.094-6.372h2.394c1.86 0 2.79-.816 2.79-2.448 0-1.632-.93-2.448-2.79-2.448H2.952v4.896Zm17.946.882c0 .348-.024.648-.072.9h-7.902c.036 1.128.354 1.974.954 2.538.612.564 1.356.846 2.232.846.792 0 1.452-.198 1.98-.594.54-.408.87-.948.99-1.62h1.746a4.098 4.098 0 0 1-.81 1.836c-.408.54-.942.96-1.602 1.26-.66.3-1.404.45-2.232.45-.948 0-1.788-.204-2.52-.612a4.399 4.399 0 0 1-1.728-1.746c-.408-.768-.612-1.668-.612-2.7 0-1.032.204-1.932.612-2.7a4.37 4.37 0 0 1 1.728-1.764c.732-.408 1.572-.612 2.52-.612.96 0 1.794.204 2.502.612.72.408 1.266.954 1.638 1.638.384.684.576 1.44.576 2.268Zm-1.656.108c.036-.732-.084-1.344-.36-1.836a2.632 2.632 0 0 0-1.134-1.098 3.452 3.452 0 0 0-1.566-.36c-.9 0-1.656.282-2.268.846-.612.552-.942 1.368-.99 2.448h6.318Zm7.849-4.626c.96 0 1.77.24 2.43.72a3.735 3.735 0 0 1 1.404 1.926v-2.52h1.638V127h-1.638v-2.52a3.735 3.735 0 0 1-1.404 1.926c-.66.48-1.47.72-2.43.72-.876 0-1.656-.204-2.34-.612-.684-.408-1.224-.99-1.62-1.746-.384-.768-.576-1.668-.576-2.7 0-1.032.192-1.932.576-2.7.396-.768.936-1.356 1.62-1.764.684-.408 1.464-.612 2.34-.612Zm.468 1.458c-1.008 0-1.818.324-2.43.972-.6.636-.9 1.518-.9 2.646s.3 2.016.9 2.664c.612.636 1.422.954 2.43.954.648 0 1.224-.15 1.728-.45.516-.3.918-.72 1.206-1.26.288-.552.432-1.188.432-1.908s-.144-1.356-.432-1.908a2.985 2.985 0 0 0-1.206-1.26c-.504-.3-1.08-.45-1.728-.45Zm11.985-1.458c1.26 0 2.303.336 3.132 1.008.828.672 1.337 1.572 1.53 2.7h-1.729c-.12-.708-.45-1.26-.99-1.656-.528-.408-1.188-.612-1.98-.612-.575 0-1.103.132-1.584.396-.468.264-.846.672-1.134 1.224-.288.54-.431 1.212-.431 2.016s.144 1.482.431 2.034c.288.54.666.942 1.134 1.206.48.264 1.008.396 1.584.396.793 0 1.453-.204 1.98-.612.54-.408.87-.966.99-1.674h1.729c-.193 1.14-.703 2.046-1.53 2.718-.829.66-1.873.99-3.133.99-.947 0-1.788-.204-2.52-.612a4.399 4.399 0 0 1-1.728-1.746c-.407-.768-.611-1.668-.611-2.7 0-1.032.204-1.932.611-2.7a4.37 4.37 0 0 1 1.728-1.764c.732-.408 1.572-.612 2.52-.612Zm11.521 8.568V127h-1.224c-1.008 0-1.764-.24-2.268-.72-.492-.48-.738-1.284-.738-2.412v-5.328H45.36v-1.422h1.476v-2.466h1.656v2.466h2.556v1.422h-2.556v5.364c0 .636.114 1.074.342 1.314.24.228.648.342 1.224.342h1.008Zm16.31 1.44h-1.638l-6.588-10.026V127h-1.638v-12.69h1.638l6.588 10.044V114.31h1.638V127Zm6.684-10.008c.96 0 1.77.24 2.43.72a3.735 3.735 0 0 1 1.404 1.926v-2.52h1.638V127h-1.638v-2.52a3.735 3.735 0 0 1-1.404 1.926c-.66.48-1.47.72-2.43.72-.876 0-1.656-.204-2.34-.612-.684-.408-1.224-.99-1.62-1.746-.384-.768-.576-1.668-.576-2.7 0-1.032.192-1.932.576-2.7.396-.768.936-1.356 1.62-1.764.684-.408 1.464-.612 2.34-.612Zm.468 1.458c-1.008 0-1.818.324-2.43.972-.6.636-.9 1.518-.9 2.646s.3 2.016.9 2.664c.612.636 1.422.954 2.43.954.648 0 1.224-.15 1.728-.45.516-.3.918-.72 1.206-1.26.288-.552.432-1.188.432-1.908s-.144-1.356-.432-1.908a2.985 2.985 0 0 0-1.206-1.26c-.504-.3-1.08-.45-1.728-.45Zm12.327 7.11V127H85.63c-1.008 0-1.764-.24-2.268-.72-.492-.48-.738-1.284-.738-2.412v-5.328h-1.476v-1.422h1.476v-2.466h1.656v2.466h2.556v1.422H84.28v5.364c0 .636.114 1.074.342 1.314.24.228.648.342 1.224.342h1.008Zm1.711-11.34c0-.3.102-.54.306-.72.204-.192.474-.288.81-.288.336 0 .606.096.81.288.204.18.306.42.306.72s-.102.546-.306.738c-.204.18-.474.27-.81.27-.336 0-.606-.09-.81-.27a.969.969 0 0 1-.306-.738Zm1.926 2.898V127h-1.638v-9.882h1.638Zm6.468 8.136 3.06-8.136h1.764L97.913 127h-1.944l-3.87-9.882h1.763l3.097 8.136Zm15.521-3.744c0 .348-.024.648-.072.9h-7.902c.036 1.128.354 1.974.954 2.538.612.564 1.356.846 2.232.846.792 0 1.452-.198 1.98-.594.54-.408.87-.948.99-1.62h1.746a4.098 4.098 0 0 1-.81 1.836c-.408.54-.942.96-1.602 1.26-.66.3-1.404.45-2.232.45-.948 0-1.788-.204-2.52-.612a4.399 4.399 0 0 1-1.728-1.746c-.408-.768-.612-1.668-.612-2.7 0-1.032.204-1.932.612-2.7a4.37 4.37 0 0 1 1.728-1.764c.732-.408 1.572-.612 2.52-.612.96 0 1.794.204 2.502.612.72.408 1.266.954 1.638 1.638.384.684.576 1.44.576 2.268Zm-1.656.108c.036-.732-.084-1.344-.36-1.836a2.632 2.632 0 0 0-1.134-1.098 3.452 3.452 0 0 0-1.566-.36c-.9 0-1.656.282-2.268.846-.612.552-.942 1.368-.99 2.448h6.318Z" fill="#A0A0A0"/><path d="M91.212 47.38c0-4.519-5.659-8.801-14.335-11.457 2.002-8.843 1.112-15.878-2.808-18.13-.904-.529-1.96-.78-3.115-.78v3.101c.64 0 1.154.126 1.585.362C74.43 21.56 75.25 25.69 74.611 31a42.82 42.82 0 0 1-.71 4.088c-2.724-.668-5.7-1.182-8.828-1.516-1.877-2.572-3.824-4.908-5.784-6.952 4.532-4.212 8.787-6.52 11.679-6.52V17c-3.824 0-8.829 2.725-13.89 7.452-5.06-4.7-10.066-7.396-13.89-7.396v3.1c2.878 0 7.147 2.294 11.68 6.48a65.677 65.677 0 0 0-5.743 6.937c-3.142.334-6.117.848-8.843 1.53a41.926 41.926 0 0 1-.723-4.032c-.653-5.312.153-9.441 2.03-10.54.418-.25.96-.36 1.6-.36V17.07c-1.169 0-2.225.25-3.143.778-3.907 2.253-4.783 9.274-2.767 18.089C28.631 38.607 23 42.875 23 47.38c0 4.518 5.659 8.8 14.335 11.456-2.002 8.843-1.113 15.879 2.808 18.13.904.53 1.96.78 3.129.78 3.823 0 8.829-2.726 13.89-7.453 5.06 4.7 10.066 7.397 13.89 7.397 1.167 0 2.224-.25 3.142-.779 3.907-2.252 4.783-9.273 2.766-18.089 8.62-2.655 14.252-6.937 14.252-11.442Zm-18.103-9.274a62.637 62.637 0 0 1-1.877 5.492 65.818 65.818 0 0 0-1.821-3.337 75.252 75.252 0 0 0-2.002-3.254 62.75 62.75 0 0 1 5.7 1.099Zm-6.368 14.807a74.058 74.058 0 0 1-3.35 5.312c-2.072.18-4.172.278-6.285.278-2.1 0-4.199-.098-6.257-.264a76.642 76.642 0 0 1-3.364-5.284 72.387 72.387 0 0 1-2.892-5.534 72.522 72.522 0 0 1 2.878-5.547 74.068 74.068 0 0 1 3.35-5.311 72.366 72.366 0 0 1 6.285-.279c2.1 0 4.199.098 6.257.265a76.602 76.602 0 0 1 3.364 5.283 72.442 72.442 0 0 1 2.892 5.534 77.868 77.868 0 0 1-2.878 5.547Zm4.491-1.807a59.583 59.583 0 0 1 1.919 5.534c-1.822.445-3.74.82-5.728 1.112a76.767 76.767 0 0 0 2.002-3.295 79.062 79.062 0 0 0 1.807-3.351ZM57.134 65.94a57.315 57.315 0 0 1-3.865-4.449c1.25.056 2.53.097 3.823.097 1.307 0 2.6-.027 3.865-.097a54.304 54.304 0 0 1-3.823 4.45Zm-10.345-8.19a62.686 62.686 0 0 1-5.7-1.097 62.614 62.614 0 0 1 1.877-5.492 65.818 65.818 0 0 0 1.821 3.337 92.163 92.163 0 0 0 2.002 3.253Zm10.275-28.933a57.336 57.336 0 0 1 3.865 4.45 86.097 86.097 0 0 0-3.823-.098c-1.307 0-2.6.028-3.865.097a54.284 54.284 0 0 1 3.823-4.449Zm-10.289 8.19a76.933 76.933 0 0 0-3.81 6.632 59.573 59.573 0 0 1-1.918-5.534 67.54 67.54 0 0 1 5.728-1.099ZM34.193 54.415c-4.922-2.1-8.106-4.852-8.106-7.035s3.184-4.95 8.106-7.036c1.195-.514 2.502-.973 3.85-1.404.793 2.725 1.836 5.562 3.13 8.468-1.28 2.892-2.309 5.714-3.087 8.425a42.22 42.22 0 0 1-3.893-1.418Zm7.48 19.869c-1.891-1.085-2.712-5.214-2.072-10.526.153-1.307.403-2.683.71-4.087 2.724.667 5.7 1.181 8.828 1.515 1.877 2.572 3.824 4.908 5.784 6.952-4.533 4.213-8.787 6.52-11.68 6.52-.625-.013-1.153-.138-1.57-.374Zm32.98-10.595c.653 5.311-.153 9.44-2.03 10.539-.418.25-.96.361-1.6.361-2.877 0-7.146-2.294-11.678-6.479a65.677 65.677 0 0 0 5.742-6.938c3.142-.333 6.117-.848 8.843-1.53.32 1.405.57 2.754.722 4.047Zm5.352-9.274c-1.195.514-2.502.973-3.85 1.404-.793-2.725-1.836-5.561-3.13-8.467 1.28-2.892 2.309-5.714 3.087-8.426 1.377.431 2.684.904 3.907 1.418 4.922 2.1 8.106 4.853 8.106 7.036-.014 2.183-3.198 4.95-8.12 7.035Z" fill="#6A6A6A"/><path d="M57.092 53.734a6.354 6.354 0 1 0 0-12.708 6.354 6.354 0 0 0 0 12.708Z" fill="#6A6A6A"/></svg>
